X:1
T:Valgsang
T:Bjørnstjerne Bjørnson/Edvard Grieg
%%score { ( 1 2 ) | ( 3 4 ) }
L:1/8
Q:1/4=132
M:4/4
K:Bb
V:1 treble-8 nm="Piano"
V:2 treble-8 
V:3 bass 
V:4 bass 
V:1
"^Allegro animato"!p! F2 | F3 G G2 A2 | !>!A4 G2 F2 |!<(! F3 B B2 d2!<)! | !>!d6!p! G2 | %5
 G3 A A2 B2 | !>!B4 A2 G2 |!<(! G3 c c2 e2!<)! | !>!e6!f! g2 | !>!G3 G G2 ^F2 | !>!^f4 ^F2 g2 | %11
 G2 G2 !>!g3 ^f | !>!^f6 a2 | !>!A3 A A2 ^G2 | !>!^g4 ^G2 a2 |"^rit." A2 A2 !>!a3 ^g | %16
 !fermata!^g8- | g2 z2!p!"^a tempo" ^G4 | ^G4 G4 |!<(! A4 A4!<)! | !>!B8- | B4!p! A4 | B4!<(! B4 | %23
 =B4 B4!<)! | !>!c8- | c4!pp! c4 | d6!<(! d2 | c4 g4!<)! | !>!g8 | f4 B4 |!>(! f4 e4 | e4!>)! d4 | %32
 d8- | d4"^cresc." d4 | d4 d4 | (^c2 a4) g2 |!f! (g4 ^f4) | =f4 B4 |"^dim. e rit." f4 e4 | e4 d4 | %40
!p! B8- | B4 z2 |] %42
V:2
 F2 | F3 F F2 F2 | F4 F2 F2 | F3 ^F F2 G2 | G6 G2 | G3 G G2 G2 | G4 G2 G2 | G3 ^G G2 A2 | A6 e2 | %9
w: Hvad|si- ger de dog|om dig, du|e- vig un- ge|mor? At|du er ble- ven|hær- tat; om|dig de det- te|tror? At|
 E3 E E2 D2 | d4 D2 e2 | E2 E2 e3 d | d6 =f2 | F3 F F2 =E2 | =e4 =E2 f2 | F2 F2 f3 =e | =e8- | %17
w: du er ble- ven|hær- tat og|er ej be- dre|værd; din|æ- re og din|fri- hed er|i de sven- ske|sværd,|
 e2 x2 =E4 | F4 F4 | F4 F4 | F8- | F4 F4 | F4 F4 | G4 G4 | A8- | A4 B4 | B6 B2 | B4 A4 | A8 | %29
w: _ det|si- ger|de om|dig?|_ Dig|selv du|rå- der|ej?|_ Men,|vet du,|det er|der-|
 B4 B4 | B4 B4 | A4 A4 | B8- | B4 B4 | B4 B4 | (A2 ^c2) c4 | A8 | B4 B4 | B4 B4 | A4 A4 | F8- | %41
w: for jeg|hol- der|så af|dig.|_ Men,|vet du,|det _ er|der-|for jeg|hol- der|så af|dig.|
 F4 x2 |] %42
w: _|
V:3
!p! F,2 | D,3 D, D,2 D,2 | D,4 D,2 D,2 |!<(! D,3 D, D,2 D,2!<)! | D,6!p! G,2 | E,3 E, E,2 E,2 | %6
 E,4 E,2 E,2 |!<(! E,3 E, E,2 E,2!<)! | E,6!f! C2 | C,3 C, C,2 C,2 | C4 C,2 C2 | C,2 C,2 C3 C | %12
 C6 D2 | D,3 D, D,2 D,2 | D4 D,2 D2 |"_rit." D,2 D,2 D3 D | D8- | D2 z2!p!"_a tempo" D,4 | %18
 D,4 D,4 |!<(! D,4 D,4!<)! | D,8- | D,4!p! D,4 | D,4!<(! D,4 | D,4 D,4!<)! | =E,8- | E,4!pp! =E,4 | %26
 F,6!<(! F,2 | G,4 C4!<)! | C8 | G,4 G,4 |!>(! G,4 G,4 | F,4!>)! F,4 | (F,4 B,4- | %33
 B,4)"_cresc." B,4 | A,4 _A,4 | G,4 =A,4 |!f! =C8 | G,4 G,4 |"_dim. e rit." G,4 G,4 | F,4 E,4 | %40
!p! D,8- | D,4 z2 |] %42
V:4
 F,2 | B,,3 B,, B,,2 B,,2 | !>!B,,4 B,,2 B,,2 | B,,3 B,, B,,2 B,,2 | !>!B,,6 G,2 | C,3 C, C,2 C,2 | %6
 !>!C,4 C,2 C,2 | C,3 C, C,2 C,2 | !>!C,6 B,2 | !>!B,,3 B,, B,,2 A,,2 | !>!A,4 A,,2 B,2 | %11
 B,,2 B,,2 !>!B,3 A, | !>!A,6 C2 | !>!C,3 C, C,2 =B,,2 | !>!=B,4 =B,,2 C2 | C,2 C,2 !>!C3 =B, | %16
 !fermata!=B,8- | B,2 x2 =B,,4 | _B,,4 B,,4 | A,,4 A,,4 | !>!^G,,8- | G,,4 A,,4 | _A,,4 A,,4 | %23
 G,,4 G,,4 | !>!^F,,8- | F,,4 _G,,4 | =F,,6 F,2 | =E,4 _E,4 | !>!D,8 | G,4 G,4 | C,4 C,4 | %31
 F,4 F,4 | (B,,4 B,4 | A,4) G,4 | ^F,4 =F,4 | =E,4 _E,4 | D,8 | G,4 G,4 | C,4 C,4 | F,4 [F,,F,]4 | %40
 B,,8- | B,,4 x2 |] %42

